!!!OTL: Graf Joerg von Wertheim. (1522.)
!!!ARE: Europa, Mitteleuropa, Deutschland
!!!SCT: A0385
!!!TXL: @@GMH
!!!YEM: Copyright 1995, estate of Helmut Schaffrath.
**kern	**text
!! Mixed meters:  4/2; 6/2
*M6/2	*
*met(c|)	*
*clefC4	*
*k[]	*
*D:dor	*
=1	=1
!LO:TX:a:t=dor.	!
1ryy	.
2ryy	.
{2D	Jch
2D	ſing
2D	euch
=2	=2
1A	hie
2B	on
1c	als
2B	ge-
=3	=3
1A	-fer,
2r}	.
{2A	was
2c	yeʒ
2B	.
=4	=4
1A	ſein
2G	die
2A/	reu-
1F	-ters
=5	=5
1E	mer
2r}	.
{2D	gegen
2F	di-
2G	-ſen
=6	=6
*M4/2	*
1A	frei-
2G	-en
2.F	may-
=7	=7
.	.
4E	.
4D	.
4C	.
1D	.
=8	=8
*M6/2	*
1C	-en:
2r}	.
{2C	Werthem
2F	.
2G	vnd
=9	=9
1A	Wirtʒburg
2G	.
1c	ſeind
2B-i	ge-
=10	=10
*M4/2	*
*lig	*
2A/	-ʒo-
4G	.
4F	.
2G	.
*Xlig	*
2G	-gen
=11	=11
*M6/2	*
1F	auß
2r}	.
{2D	gar
2E	fur
2F	ein
=12	=12
*lig	*
2.G	fe-
4F	.
2E	.
*Xlig	*
2F	.
1D	-ſtes
=13	=13
*M4/2	*
1C	hawß,
2r}	.
{2C	ir
=14	=14
*lig	*
2.F	feynd
4G	.
*Xlig	*
2A	ʒu
2B	be-
=15	=15
2.c	-ſchaw-
4B	.
2A	.
2G	.
=16	=16
2F	.
2G	.
1E	.
=17	=17
0D/ll}	-en.
==	==
!!!GTL: Einige historisch-politische Lieder
!!!AGN: Romanze, Ballade, Lied, Personenlied
!! Offn. Bl. kl. folio, o.O.u.J. (c.1523), Bibl. Berlin
!!!ONB: ESAC (Essen Associative Code) Database: ALTDEU
!!!AMT: irregular
!!!AIN: vox
!!!EED: Helmut Schaffrath
!!!EEV: 1.0
!!!RDF**kern: i = editorial accidental
!!!RDF**kern: l = terminal long
!!!AMD: Dorian
!!!URL-scan: https://rosdok.uni-rostock.de/mcrviewer/recordIdentifier/rosdok_ppn738218359/iview2/phys_0548.iview2?x=-948.0634874302073&y=635.0880732121877&scale=0.3669911794666851&rotation=0&layout=singlePageLayout&logicalDiv=log_0014
!!!ENC: Anna Maria Matuszewska
!!!EEV: 2024/14/03
*-	*-
